svg/fluentui-system-icons/ic_fluent_align_space_evenly_horizontal_20_filled.svg

<svg width="20" height="20" viewBox="0 0 20 20" fill="none" xmlns="http://www.w3.org/2000/svg">
<path d="M4 16C5.10457 16 6 15.1046 6 14V6C6 4.89543 5.10457 4 4 4H3C1.89543 4 1 4.89543 1 6V14C1 15.1046 1.89543 16 3 16H4Z" fill="#212121"/>
<path d="M10 16C11.1046 16 12 15.1046 12 14V6C12 4.89543 11.1046 4 10 4H9C7.89543 4 7 4.89543 7 6V14C7 15.1046 7.89543 16 9 16H10Z" fill="#212121"/>
<path d="M16 16C17.1046 16 18 15.1046 18 14V6C18 4.89543 17.1046 4 16 4H15C13.8954 4 13 4.89543 13 6V14C13 15.1046 13.8954 16 15 16H16Z" fill="#212121"/>
</svg>

<svg xmlns="http://www.w3.org/2000/svg" width="20" height="20"><path d="M4 16a2 2 0 0 0 2-2V6a2 2 0 0 0-2-2H3a2 2 0 0 0-2 2v8a2 2 0 0 0 2 2h1Zm6 0a2 2 0 0 0 2-2V6a2 2 0 0 0-2-2H9a2 2 0 0 0-2 2v8a2 2 0 0 0 2 2h1Zm6 0a2 2 0 0 0 2-2V6a2 2 0 0 0-2-2h-1a2 2 0 0 0-2 2v8a2 2 0 0 0 2 2h1Z"/></svg>
